packages/core/src/svgs/tokens/branded/KCS.svg

<svg width="24" height="24" viewBox="0 0 24 24" fill="none" xmlns="http://www.w3.org/2000/svg">
<path d="M8.711 12L14.4582 17.9258L18.093 14.19C18.7181 13.5401 19.7911 13.5401 20.4164 14.19C21.0497 14.8488 21.0497 15.9226 20.4164 16.5808L15.6247 21.5174C14.9963 22.1609 13.9295 22.1609 13.3013 21.5174L6.28522 14.4016V18.6266C6.29793 19.5307 5.60097 20.2988 4.69688 20.3166C3.78836 20.3046 3.09647 19.5352 3.10855 18.6266V5.37347C3.10855 4.43953 3.78517 3.68348 4.69688 3.68348C5.59716 3.68348 6.28522 4.43953 6.28522 5.37347V9.59845L13.3018 2.48269C13.9303 1.8391 14.9969 1.8391 15.6253 2.48269L20.4049 7.41925C21.0391 8.07746 21.0391 9.1512 20.4049 9.80941C19.781 10.4523 18.7168 10.4523 18.093 9.80941L14.4582 6.07362L8.711 12ZM14.469 10.31C15.3693 10.31 16.1031 11.0661 16.1031 12C16.1031 12.934 15.3693 13.69 14.469 13.69C13.5687 13.69 12.8235 12.934 12.8235 12C12.8235 11.0661 13.5579 10.31 14.469 10.31Z" fill="#23AF91"/>
</svg>

<svg xmlns="http://www.w3.org/2000/svg" width="24" height="24" fill="none" viewBox="0 0 24 24">
    <path fill="#23AF91" d="m8.711 12 5.747 5.926 3.635-3.736a1.63 1.63 0 0 1 2.323 0 1.74 1.74 0 0 1 0 2.39l-4.791 4.937a1.64 1.64 0 0 1-2.324 0l-7.016-7.115v4.225c.013.904-.684 1.672-1.588 1.69-.909-.012-1.6-.782-1.588-1.69V5.373c0-.933.676-1.69 1.588-1.69.9 0 1.588.757 1.588 1.69v4.225l7.017-7.115a1.64 1.64 0 0 1 2.323 0l4.78 4.936a1.74 1.74 0 0 1 0 2.39 1.627 1.627 0 0 1-2.312 0l-3.635-3.735zm5.758-1.69c.9 0 1.634.756 1.634 1.69s-.734 1.69-1.634 1.69-1.646-.756-1.646-1.69.735-1.69 1.646-1.69"/>
</svg>
